cmd/conneroh/_static/dist/svg/expand.svg

<svg height="18" viewBox="0 0 18 18" width="18" xmlns="http://www.w3.org/2000/svg"><path d="m15 15 6 6m-6-12 6-6m0 13.197917v4.802083h-4.802083m4.802083-13.197917v-4.802083h-4.802083m-13.197917 13.197917v4.802083h4.802083m-4.802083 0 6-6m-6-7.197917v-4.802083h4.802083m1.197917 6-6-6" fill="none" stroke="#fff" stroke-linecap="round" stroke-linejoin="round" stroke-width="2" transform="scale(.75)"/></svg>

<svg xmlns="http://www.w3.org/2000/svg" width="24" height="24" fill="none" stroke="white" stroke-linecap="round" stroke-linejoin="round" stroke-width="2">
    <path d="m15 15 6 6M15 9l6-6m0 13.2V21h-4.8M21 7.8V3h-4.8M3 16.2V21h4.8M3 21l6-6M3 7.8V3h4.8M9 9 3 3"/>
</svg>
